public/images/icons/16x16/heart_16_white.svg

<svg height="16" viewBox="0 0 16 16" width="16" xmlns="http://www.w3.org/2000/svg"><path d="m13.9915147 2.08290118c-.6385728-.70060316-1.5066395-1.08290118-2.4611023-1.08290118-.6987447 0-1.3279634.2197607-1.89800523.66570581-.29856999.23350256-.5730648.52348542-.81887659.86736813l-.81332449 1.13781455-.81359724-1.13761954c-.24595578-.34390984-.52067613-.63408779-.81942531-.86773053-.56967096-.4457719-1.19887702-.66553842-1.89759599-.66553842-.95461888 0-1.82272922.38229829-2.46127381 1.08287507-.64623184.70907762-1.00831374 1.69472406-1.00831374 2.78140347 0 1.12244462.4165241 2.15746956 1.36047956 3.309663.76378545.93236161 1.59132554 1.69932831 3.85183138 3.64818986.84087097.7249341 1.26818544 1.0957391 1.7876217 1.5548441.51578858-.4558951.92440306-.8104813 1.78808255-1.5553638 2.25907071-1.94732268 3.08762641-2.71519451 3.85156681-3.64774535.9439427-1.15205314 1.360418-2.18704624 1.360418-3.30974587 0-1.08642128-.3621713-2.0720807-1.0084853-2.7812193zm-5.94724603 11.33327722c.00000813.0000072.00001627.0000144.00002441.0000216-.00000813-.0000072-.00001627-.0000144-.00002441-.0000216zm-.0885037-.0001482c-.00001626.0000143-.00003251.0000287-.00004875.0000431.00001626-.0000144.00003251-.0000287.00004877-.0000431zm6.03574973-11.33312902c-.0000026-.00000285-.0000051-.0000057-.0000077-.00000855l.0000155.0000171c-.0000026-.00000285-.0000052-.0000057-.0000078-.00000855z" fill="none" stroke="#fff" stroke-width="2"/></svg>

<svg xmlns="http://www.w3.org/2000/svg" width="16" height="16" viewBox="0 0 16 16">
  <path fill="none" stroke="#FFF" stroke-width="2" d="M13.9915147,2.08290118 C13.3529419,1.38229802 12.4848752,1 11.5304124,1 C10.8316677,1 10.202449,1.2197607 9.63240717,1.66570581 C9.33383718,1.89920837 9.05934237,2.18919123 8.81353058,2.53307394 L8.00020609,3.67088849 L7.18660885,2.53326895 C6.94065307,2.18935911 6.66593272,1.89918116 6.36718354,1.66553842 C5.79751258,1.21976652 5.16830652,1 4.46958755,1 C3.51496867,1 2.64685833,1.38229829 2.00831374,2.08287507 C1.3620819,2.79195269 1,3.77759913 1,4.86427854 C1,5.98672316 1.4165241,7.0217481 2.36047956,8.17394154 C3.12426501,9.10630315 3.9518051,9.87326985 6.21231094,11.8221314 C7.05318191,12.5470655 7.48049638,12.9178705 7.99993264,13.3769755 C8.51572122,12.9210804 8.9243357,12.5664942 9.78801519,11.8216117 C12.0470859,9.87428902 12.8756416,9.10641719 13.639582,8.17386635 C14.5835247,7.02181321 15,5.98682011 15,4.86412048 C15,3.7776992 14.6378287,2.79203978 13.9915147,2.08290118 Z M8.04426867,13.4161784 C8.0442768,13.4161856 8.04428494,13.4161928 8.04429308,13.4162 C8.04428495,13.4161928 8.04427681,13.4161856 8.04426867,13.4161784 Z M7.95576497,13.4160302 C7.95574871,13.4160445 7.95573246,13.4160589 7.95571622,13.4160733 C7.95573248,13.4160589 7.95574873,13.4160446 7.95576499,13.4160302 Z M13.9915147,2.08290118 C13.9915121,2.08289833 13.9915096,2.08289548 13.991507,2.08289263 L13.9915225,2.08290973 C13.9915199,2.08290688 13.9915173,2.08290403 13.9915147,2.08290118 Z"/>
</svg>
